X:1     %Music
T:Green Gravel
B:Broadwood, Lucy, 1893, English County Songs, Leadenhall Press, London
S:Words and Tune from Mrs Harley, Bewdley
Z:J.A. Fuller-Maitland
M:3/8     %Meter
L:1/16     %
K:D
A2 |F2 D2 A2 |F2 D2 EF |G2 F2 E2 | D4 
w:Green gra-vel, green gra-vel, the_ grass is so green;
A2 |F2 D2 A2 |F2 D2 EF |G2 F2 E2 | D4 
w:The fair-est young dam-sel that_ ev-er was seen; 
d2 |B2 G2 d2 |B2 G2 AB |=c2 A2 F2 | G4
w:O Ma-ry, O Ma-ry, your_ true love is dead,
 d2 |B2 G2 d2 |B2 G2 AB |=c2 A2 F2 | G4  |]
w: He sends you this let-ter for to turn round your head. 